!!! OTL: Berkowitz618
!!! Chapter: 1
!!! Section: V
!!! Page: 157
!!! Mode: 
!!! Encoder: AR
**kern
*staff1
=1-
!!pagebreak:original
*clefG2
*k[]
*C:
*M6/8
8A/L
8c#/
8ccn/J
4a/
8cc\
=2
[4.c#/
8c#/L]
8d/
8e/J
=3
8cn/L
8b/
8a-/J
4b-\
8a-/
=4
[4.d/
4d/]
8r
=5
4B/
8b-\
4.g/
=6
8Bn/L
8B/
8b-/J
4g/
8a/
=7
4cc#\
8ccn\
4.e/
=8
!!linebreak:original
8d/L
8cn/
8B-/J
8A-/
4g/
=9
8An/L
8c#/
8b-/J
4dd-\
8b-\
=10
[4.dd-\
4dd-\]
8r
=11
!!linebreak:original
4ddn\
8e-/
4.d-/
=12
8cc\L
8cc\
8a\J
4.B/
=13
8c/L
8d-/
8e-/J
8a/L
8g/
8B/J
=14
4A-/
8g/
4.en/
==
*-
